X:1
T:Sale, LM
T:Sale, LM
T:Arranged by Lowell Mason, 1844
T:Public Domain Courtesy of the Cyber Hymnal™
C:Arranged by Lowell Mason, 1844
Z:Public Domain
Z:Courtesy of the Cyber Hymnal™
%%score ( 1 2 ) ( 3 4 )
L:1/8
Q:1/4=117
M:3/2
K:G
V:1 treble 
V:2 treble 
V:3 bass 
V:4 bass 
V:1
 [DG]4 | [EG]2 [DG]2 [Dd]4 [GB]4 | [Ec]2 [FA]2 G4 G4 | [FA]2 [GB]2 [Ec]4 [FA]4 | %4
 [Fd]2 [G^c]2 [Fd]4 [GB]4 | [GB]2 [Gd]2 [Gc]4 [FA]4 | (G>A) [GB]2 [FA]4 [GB]4 | %7
 [FA]2 G2 (d3 c) [GB]4 | [GA]2 [FA]2 G4 |] %9
V:2
 x4 | x12 | x4 G4 G4 | x12 | x12 | x12 | E2 x10 | x2 G2 A4 x4 | x4 G4 |] %9
V:3
 [G,B,]4 | [G,C]2 [G,B,]2 [F,A,]4 [G,D]4 | [A,C]2 [D,D]2 [G,B,]4 [E,B,]4 | %3
 [D,D]2 [G,D]2 [A,C]4 [F,D]4 | [B,D]2 [A,E]2 [D,D]4 [G,D]4 | [G,D]2 [B,,D]2 [C,C]4 [D,B,]4 | %6
 [E,B,]2 D2 [D,D]4 [G,D]4 | [D,D]2 [E,B,]2 [F,D]4 [G,D]4 | [C,E]2 (D>C) [G,,B,]4 |] %9
V:4
 x4 | x12 | x12 | x12 | x12 | x12 | x2 (B,,>C,) x8 | x12 | x2 D,2 x4 |] %9

